;FLAVOR:Marlin
;TIME:8909
;Filament used: 5.98379m
;Layer height: 0.15
;MINX:76.85
;MINY:76.849
;MINZ:0.144
;MAXX:158.151
;MAXY:158.151
;MAXZ:13.089
;Generated with Cura_SteamEngine main
M140 S60
M105
M190 S60
M104 S200
M105
M109 S200
M82 ;absolute extrusion mode
; Ender 3 Custom Start G-code
G92 E0 ; Reset Extruder
G28 ; Home all axes
G1 Z2.0 F3000 ; Move Z Axis up little to prevent scratching of Heat Bed
G1 X0.1 Y20 Z0.3 F5000.0 ; Move to start position
G1 X0.1 Y200.0 Z0.3 F1500.0 E15 ; Draw the first line
G1 X0.4 Y200.0 Z0.3 F5000.0 ; Move to side a little
G1 X0.4 Y20 Z0.3 F1500.0 E30 ; Draw the second line
G92 E0 ; Reset Extruder
G1 Z2.0 F3000 ; Move Z Axis up little to prevent scratching of Heat Bed
G1 X5 Y20 Z0.3 F5000.0 ; Move over to prevent blob squish
G92 E0
G92 E0
G1 F2700 E-5
;LAYER_COUNT:82
;LAYER:-6
M107
G0 F9000 X87.699 Y91.442 Z0.144
;TYPE:SUPPORT-INTERFACE
G1 F2700 E0
G1 F2250 X85.733 Y93.875 E0.14982
G1 X85.205 Y94.601 E0.19281
G1 X83.506 Y97.218 E0.34225
G1 X82.922 Y98.228 E0.39813
G1 X81.568 Y100.887 E0.54104
G1 X81.173 Y101.753 E0.58663
G1 X80.447 Y103.541 E0.67905
G1 X80.248 Y104.071 E0.70617
G1 X79.906 Y105.059 E0.75624
G1 X79.673 Y105.831 E0.79486
G1 X78.864 Y108.872 E0.94558
G1 X78.656 Y109.868 E0.99431
G1 X78.187 Y112.835 E1.13818
G1 X78.079 Y113.846 E1.18687
G1 X77.916 Y116.928 E1.33469
G1 X77.917 Y118.074 E1.38958
G1 X78.074 Y121.078 E1.53365
G1 X78.18 Y122.103 E1.583
G1 X78.664 Y125.166 E1.73152
G1 X78.905 Y126.295 E1.78682
G1 X79.707 Y129.284 E1.93504
G1 X79.993 Y130.171 E1.97967
G1 X81.104 Y133.067 E2.12823
G1 X81.588 Y134.151 E2.18509
G1 X83.001 Y136.918 E2.33389
G1 X83.504 Y137.783 E2.38182
G1 X85.207 Y140.399 E2.53132
G1 X85.816 Y141.232 E2.58074
G1 X87.697 Y143.555 E2.7239
G1 X88.464 Y144.407 E2.77881
G1 X90.593 Y146.535 E2.92298
G1 X91.444 Y147.301 E2.97782
G1 X93.855 Y149.252 E3.12636
G1 X94.592 Y149.788 E3.17001
G1 X97.227 Y151.504 E3.32061
G1 X98.097 Y152.007 E3.36874
G1 X100.85 Y153.413 E3.5168
G1 X101.932 Y153.897 E3.57357
G1 X104.855 Y155.016 E3.72347
G1 X105.845 Y155.33 E3.77321
G1 X108.872 Y156.136 E3.92324
G1 X109.868 Y156.344 E3.97198
G1 X112.835 Y156.813 E4.11584
G1 X113.846 Y156.921 E4.16454
G1 X116.928 Y157.084 E4.31236
G1 X118.074 Y157.083 E4.36724
G1 X121.078 Y156.926 E4.51132
G1 X122.103 Y156.82 E4.56067
G1 X125.166 Y156.336 E4.70919
G1 X126.295 Y156.095 E4.76448
G1 X129.284 Y155.293 E4.9127
G1 X130.171 Y155.007 E4.95734
G1 X133.067 Y153.896 E5.1059
G1 X134.151 Y153.412 E5.16276
G1 X136.919 Y151.998 E5.31162
G1 X137.67 Y151.565 E5.35314
G1 X140.311 Y149.854 E5.50386
G1 X141.233 Y149.184 E5.55845
G1 X143.579 Y147.284 E5.70303
G1 X144.33 Y146.608 E5.75143
G1 X146.65 Y144.286 E5.90864
G1 X147.325 Y143.531 E5.95714
G1 X149.256 Y141.139 E6.10438
G1 X149.857 Y140.306 E6.15357
G1 X151.496 Y137.783 E6.29767
G1 X152.078 Y136.772 E6.35354
G1 X153.412 Y134.15 E6.49444
G1 X153.897 Y133.068 E6.55123
G1 X155.016 Y130.145 E6.70113
G1 X155.33 Y129.155 E6.75088
G1 X156.136 Y126.128 E6.90091
G1 X156.344 Y125.132 E6.94964
G1 X156.815 Y122.151 E7.09418
G1 X156.921 Y121.154 E7.1422
G1 X157.084 Y118.072 E7.29002
G1 X157.084 Y117.488 E7.31799
G1 X157.083 Y116.926 E7.34491
G1 X156.924 Y113.896 E7.49023
G1 X156.82 Y112.898 E7.53829
G1 X156.313 Y109.71 E7.69289
G1 X156.088 Y108.674 E7.74367
G1 X155.293 Y105.716 E7.89037
G1 X155.007 Y104.829 E7.935
G1 X153.841 Y101.799 E8.0905
G1 X153.406 Y100.835 E8.14115
G1 X151.997 Y98.08 E8.28936
G1 X151.565 Y97.33 E8.33081
G1 X149.854 Y94.688 E8.48157
G1 X149.185 Y93.767 E8.53609
G1 X147.303 Y91.444 E8.67928
G1 X146.536 Y90.593 E8.73415
G1 X144.406 Y88.464 E8.87838
G1 X143.556 Y87.699 E8.93316
G1 X141.232 Y85.816 E9.07641
G1 X140.312 Y85.146 E9.13092
G1 X137.783 Y83.504 E9.27534
G1 X136.772 Y82.922 E9.33121
G1 X134.15 Y81.588 E9.47211
G1 X133.068 Y81.103 E9.5289
G1 X130.145 Y79.984 E9.6788
G1 X129.155 Y79.67 E9.72855
G1 X126.128 Y78.864 E9.87857
G1 X125.132 Y78.656 E9.92731
G1 X122.165 Y78.187 E10.07117
G1 X121.154 Y78.079 E10.11987
G1 X118.072 Y77.917 E10.26769
G1 X116.926 Y77.917 E10.32257
G1 X113.922 Y78.074 E10.46664
G1 X112.897 Y78.18 E10.516
G1 X109.709 Y78.687 E10.6706
G1 X108.706 Y78.903 E10.71974
G1 X105.702 Y79.709 E10.86871
G1 X104.829 Y79.993 E10.91268
G1 X101.8 Y81.159 E11.06813
G1 X100.851 Y81.586 E11.11797
G1 X98.098 Y82.991 E11.266
G1 X97.476 Y83.343 E11.30023
G1 X95.737 Y84.424 E11.3983
G1 X95.337 Y84.687 E11.42123
G1 X94.43 Y85.317 E11.47412
G1 X93.799 Y85.788 E11.51183
G1 X91.444 Y87.697 E11.65703
G1 X90.593 Y88.462 E11.71183
G1 X88.464 Y90.592 E11.85607
G1 X87.699 Y91.442 E11.91084
G0 F9000 X87.633 Y92.158
G1 F2250 X142.84 Y147.366 E15.65022
G0 F9000 X144.054 Y146.317
G1 F2250 X88.682 Y90.945 E19.40074
G0 F9000 X89.809 Y89.809
G1 F2250 X145.185 Y145.185 E23.15154
G0 F9000 X146.316 Y144.053
G1 F2250 X90.945 Y88.682 E26.90199
G0 F9000 X92.157 Y87.632
G1 F2250 X147.367 Y142.841 E30.64151
G0 F9000 X148.377 Y141.589
G1 F2250 X93.408 Y86.619 E34.36476
G0 F9000 X94.68 Y85.629
G1 F2250 X149.361 Y140.31 E38.06848
G0 F9000 X150.262 Y138.948
G1 F2250 X96.028 Y84.714 E41.74192
G0 F9000 X97.423 Y83.846
G1 F2250 X151.153 Y137.576 E45.38123
G0 F9000 X151.96 Y136.12
G1 F2250 X98.879 Y83.04 E48.97654
G0 F9000 X100.378 Y82.276
G1 F2250 X152.723 Y134.621 E52.52203
G0 F9000 X153.45 Y133.085
G1 F2250 X101.911 Y81.547 E56.0129
G0 F9000 X103.543 Y80.916
G1 F2250 X154.084 Y131.457 E59.4362
G0 F9000 X154.701 Y129.811
G1 F2250 X105.187 Y80.297 E62.78994
G0 F9000 X106.943 Y79.79
G1 F2250 X155.208 Y128.055 E66.05909
G0 F9000 X155.684 Y126.268
G1 F2250 X108.727 Y79.311 E69.23963
G0 F9000 X110.624 Y78.946
G1 F2250 X156.057 Y124.379 E72.31695
G0 F9000 X156.366 Y122.425
G1 F2250 X112.577 Y78.636 E75.28292
G0 F9000 X114.641 Y78.437
G1 F2250 X156.561 Y120.358 E78.12233
G0 F9000 X156.675 Y118.209
G1 F2250 X116.791 Y78.324 E80.82384
G0 F9000 X119.101 Y78.372
G1 F2250 X156.628 Y115.899 E83.36566
G0 F9000 X156.479 Y113.487
G1 F2250 X121.512 Y78.52 E85.73409
G0 F9000 X124.163 Y78.908
G1 F2250 X156.086 Y110.831 E87.89633
G0 F9000 X155.482 Y107.965
G1 F2250 X127.038 Y79.52 E89.82297
G0 F9000 X130.223 Y80.443
G1 F2250 X154.558 Y104.778 E91.47126
G0 F9000 X153.036 Y100.993
G1 F2250 X134.008 Y81.964 E92.76012
G1 F2700 E87.76012
G0 F9000 X134.673 Y80.658
G0 X137.858 Y82.332
G0 X140.017 Y83.685
G0 X139.22 Y84.915
G1 F2700 E92.76012
G1 F2250 X150.082 Y95.776 E93.4958
G1 F2700 E88.4958
G0 F9000 X151.311 Y94.978
G0 X152.93 Y97.565
G0 X154.46 Y100.571
G0 X156.012 Y104.48
G0 X157.122 Y108.415
G0 X157.385 Y109.649
G0 X157.877 Y112.766
G0 X157.986 Y113.821
G0 X158.15 Y117.031
G0 X158.148 Y118.107
G0 X157.981 Y121.244
G0 X157.87 Y122.294
G0 X157.361 Y125.489
G0 X156.356 Y129.447
G0 X155.962 Y130.66
G0 X154.46 Y134.43
G0 X152.93 Y137.435
G0 X150.741 Y140.902
G0 X150.038 Y141.871
G0 X148.064 Y144.308
G0 X145.06 Y147.385
G0 X142.514 Y149.518
G0 X141.59 Y148.378
G1 F2700 E93.4958
G1 F2250 X86.621 Y93.41 E97.21899
G0 F9000 X85.635 Y94.686
G1 F2250 X140.309 Y149.36 E100.92224
G0 F9000 X138.946 Y150.26
G1 F2250 X84.738 Y96.052 E104.59392
G0 F9000 X83.848 Y97.424
G1 F2250 X137.573 Y151.149 E108.23288
G0 F9000 X136.117 Y151.956
G1 F2250 X83.039 Y98.878 E111.82802
G0 F9000 X82.275 Y100.377
G1 F2250 X134.62 Y152.722 E115.37352
G0 F9000 X133.083 Y153.448
G1 F2250 X81.541 Y101.906 E118.86462
G0 F9000 X80.888 Y103.516
G1 F2250 X131.456 Y154.084 E122.28975
G0 F9000 X129.811 Y154.701
G1 F2250 X80.287 Y105.177 E125.64417
G0 F9000 X79.79 Y106.943
G1 F2250 X128.054 Y155.207 E128.91325
G0 F9000 X126.27 Y155.686
G1 F2250 X79.314 Y108.73 E132.09373
G0 F9000 X78.942 Y110.62
G1 F2250 X124.376 Y156.054 E135.17112
G0 F9000 X122.422 Y156.363
G1 F2250 X78.633 Y112.574 E138.13708
G0 F9000 X78.437 Y114.641
G1 F2250 X120.358 Y156.561 E140.97649
G0 F9000 X118.207 Y156.674
G1 F2250 X78.323 Y116.789 E143.678
G0 F9000 X78.37 Y119.1
G1 F2250 X115.898 Y156.627 E146.21985
G0 F9000 X113.486 Y156.478
G1 F2250 X78.52 Y121.512 E148.58821
G0 F9000 X78.91 Y124.165
G1 F2250 X110.835 Y156.09 E150.75059
G0 F9000 X107.961 Y155.478
G1 F2250 X79.517 Y127.035 E152.67716
G0 F9000 X80.439 Y130.22
G1 F2250 X104.775 Y154.555 E154.32548
G0 F9000 X100.993 Y153.036
G1 F2250 X81.962 Y134.005 E155.61451
G1 F2700 E150.61451
G0 F9000 X80.657 Y134.671
G0 X82.336 Y137.864
G0 X83.691 Y140.026
G0 X84.922 Y139.227
G1 F2700 E155.61451
G1 F2250 X95.771 Y150.077 E156.34939
G1 F2700 E151.34939
G0 F300 X95.771 Y150.077 Z0.369
G0 F9000 X94.972 Y151.309
G0 X97.583 Y152.941
G0 X100.57 Y154.46
G0 X104.34 Y155.962
G0 X105.553 Y156.356
G0 X109.511 Y157.361
G0 X112.788 Y157.88
G0 X113.877 Y157.991
G0 X117.033 Y158.151
G0 X118.111 Y158.147
G0 X121.259 Y157.979
G0 X122.356 Y157.86
G0 X126.398 Y157.168
G0 X129.606 Y156.31
G0 X130.651 Y155.966
G0 X134.43 Y154.46
G0 X137.435 Y152.93
G0 X140.249 Y151.154
G0 X141.887 Y150.025
G0 X141.293 Y148.62
;TIME_ELAPSED:102.808387
;LAYER:-5
;TYPE:SUPPORT
G1 F2700 E156.34939
G1 F2250 X148.618 Y141.294 E157.12467
G1 F2700 E152.12467
G0 F9000 X149.76 Y142.216
G0 X147.429 Y145.013
G0 X146.758 Y145.685
G0 X144.338 Y148.037
G0 X143.319 Y146.978
G1 F2700 E157.12467
G1 F2250 X144.051 Y146.321 E157.19827
G1 X146.295 Y144.079 E157.43566
G1 X147.012 Y143.283 E157.51583
G1 X148.893 Y140.955 E157.73981
G1 X149.474 Y140.157 E157.81368
G1 X151.156 Y137.572 E158.04447
G1 X151.472 Y137.026 E158.09168
G1 X137.025 Y151.474 E159.62071
G1 X136.724 Y151.649 E159.64676
G1 X134.09 Y152.995 E159.86812
G1 X153.009 Y134.076 E161.87038
G1 X153.524 Y132.916 E161.96536
G1 X154.005 Y131.665 E162.06566
G1 X131.663 Y154.007 E164.43018
G1 X130.051 Y154.625 E164.55938
G1 X129.43 Y154.826 E164.60823
G1 X154.823 Y129.433 E167.29565
G1 X154.904 Y129.189 E167.31489
G1 X155.364 Y127.478 E167.44748
G1 X127.477 Y155.364 E170.39879
G1 X126.203 Y155.707 E170.49753
G1 X125.588 Y155.839 E170.5446
G1 X155.837 Y125.591 E173.74589
G1 X155.95 Y125.059 E173.78659
G1 X156.136 Y123.877 E173.87614
G1 X123.88 Y156.134 E177.28994
G1 X122.197 Y156.402 E177.41748
G1 X156.402 Y122.197 E181.0375
G1 X156.523 Y121.099 E181.12016
G1 X156.547 Y120.638 E181.15471
G1 X120.635 Y156.549 E184.95533
G1 X119.144 Y156.626 E185.06706
G1 X156.625 Y119.146 E189.03374
G1 X156.682 Y118.071 E189.1143
G1 X156.682 Y117.675 E189.14394
G1 X117.674 Y156.682 E193.27222
G1 X116.93 Y156.683 E193.3279
G1 X116.292 Y156.65 E193.37571
G1 X156.648 Y116.294 E197.64671
G1 X156.578 Y114.95 E197.74742
G1 X114.948 Y156.58 E202.15325
G1 X113.99 Y156.53 E202.22504
G1 X113.622 Y156.492 E202.25273
G1 X156.492 Y113.622 E206.7898
G1 X156.409 Y112.845 E206.84827
G1 X156.332 Y112.367 E206.88451
G1 X112.365 Y156.334 E211.53767
G1 X111.145 Y156.141 E211.6301
G1 X156.138 Y111.147 E216.39191
G1 X155.943 Y109.928 E216.48429
G1 X109.923 Y155.948 E221.35473
G1 X108.76 Y155.697 E221.44377
G1 X155.694 Y108.763 E226.41094
G1 X155.395 Y107.647 E226.4974
G1 X107.646 Y155.397 E231.55088
G1 X106.531 Y155.098 E231.63727
G1 X155.097 Y106.532 E236.77716
G1 X154.903 Y105.801 E236.83375
G1 X154.782 Y105.432 E236.86282
G1 X105.434 Y154.78 E242.08547
G1 X104.834 Y154.582 E242.13275
G1 X104.389 Y154.411 E242.16843
G1 X154.41 Y104.39 E247.4623
G1 X154.019 Y103.367 E247.54426
G1 X103.367 Y154.019 E252.90492
G1 X102.345 Y153.626 E252.98686
G1 X153.626 Y102.345 E258.41409
G1 X153.529 Y102.092 E258.43437
G1 X153.203 Y101.354 E258.49474
G1 X101.356 Y153.201 E263.98187
G1 X101.022 Y153.052 E264.00924
G1 X100.405 Y152.738 E264.06105
G1 X152.735 Y100.409 E269.59924
G1 X152.259 Y99.47 E269.67803
G1 X99.47 Y152.259 E275.26485
G1 X98.533 Y151.781 E275.34357
G1 X151.789 Y98.526 E280.97976
G1 X151.271 Y97.63 E281.05721
G1 X97.619 Y151.282 E286.73537
G1 X96.761 Y150.725 E286.81192
G1 X150.724 Y96.763 E292.52294
G1 X150.167 Y95.905 E292.59949
G1 X95.904 Y150.168 E298.34232
G1 X95.047 Y149.611 E298.41881
G1 X149.616 Y95.042 E304.19401
G1 X149.021 Y94.223 E304.26977
G1 X94.213 Y149.031 E310.07027
G1 X93.432 Y148.398 E310.1455
G1 X148.397 Y93.432 E315.96267
G1 X147.764 Y92.651 E316.0379
G1 X92.65 Y147.765 E321.87079
G1 X91.87 Y147.131 E321.94601
G1 X147.14 Y91.861 E327.79541
G1 X146.47 Y91.117 E327.87033
G1 X91.117 Y146.47 E333.72851
G1 X90.869 Y146.247 E333.75347
G1 X90.397 Y145.775 E333.80343
G1 X145.775 Y90.397 E339.66425
G1 X145.068 Y89.69 E339.73908
G1 X89.69 Y145.068 E345.5999
G1 X88.983 Y144.361 E345.67472
G1 X144.361 Y88.983 E351.53555
G1 X144.121 Y88.744 E351.5609
G1 X143.629 Y88.301 E351.61044
G1 X88.302 Y143.628 E357.46587
G1 X88.011 Y143.307 E357.49829
G1 X87.652 Y142.863 E357.54102
G1 X142.864 Y87.652 E363.38423
G1 X142.083 Y87.019 E363.45946
G1 X87.02 Y142.082 E369.28695
G1 X86.386 Y141.301 E369.36223
G1 X141.302 Y86.385 E375.17416
G1 X140.98 Y86.125 E375.20513
G1 X140.498 Y85.775 E375.24971
G1 X85.776 Y140.497 E381.04111
G1 X85.467 Y140.073 E381.08037
G1 X85.2 Y139.659 E381.11724
G1 X139.66 Y85.199 E386.88091
G1 X138.803 Y84.642 E386.9574
G1 X84.642 Y138.802 E392.68937
G1 X84.086 Y137.945 E392.76582
G1 X137.945 Y84.085 E398.46594
G1 X137.583 Y83.85 E398.49823
G1 X137.067 Y83.549 E398.54294
G1 X83.55 Y137.066 E404.20681
G1 X83.348 Y136.719 E404.23686
G1 X83.056 Y136.147 E404.28492
G1 X136.147 Y83.055 E409.90376
G1 X135.211 Y82.577 E409.98241
G1 X82.578 Y135.21 E415.55272
G1 X82.1 Y134.274 E415.63137
G1 X134.275 Y82.099 E421.15321
G1 X133.967 Y81.942 E421.17908
G1 X133.31 Y81.649 E421.23292
G1 X81.65 Y133.31 E426.70031
G1 X81.469 Y132.905 E426.73351
G1 X81.24 Y132.306 E426.7815
G1 X132.306 Y81.239 E432.18602
G1 X131.284 Y80.847 E432.26794
G1 X80.847 Y131.284 E437.60584
G1 X80.456 Y130.261 E437.6878
G1 X130.263 Y80.453 E442.95908
G1 X129.204 Y80.098 E443.04267
G1 X80.1 Y129.203 E448.23955
G1 X79.799 Y128.09 E448.32583
G1 X128.089 Y79.799 E453.43657
G1 X126.975 Y79.5 E453.52288
G1 X79.5 Y126.975 E458.54731
G1 X79.292 Y126.203 E458.60714
G1 X79.215 Y125.845 E458.63455
G1 X125.845 Y79.215 E463.56954
G1 X125.07 Y79.051 E463.62883
G1 X124.66 Y78.985 E463.6599
G1 X78.989 Y124.657 E468.49346
G1 X78.795 Y123.437 E468.58591
G1 X123.439 Y78.792 E473.31077
G1 X122.218 Y78.599 E473.40328
G1 X78.6 Y122.217 E478.01951
G1 X78.46 Y120.943 E478.11542
G1 X120.939 Y78.464 E482.61111
G1 X119.595 Y78.394 E482.71182
G1 X78.396 Y119.593 E487.07204
G1 X78.326 Y118.249 E487.17276
G1 X118.26 Y78.314 E491.39915
G1 X116.84 Y78.321 E491.50541
G1 X78.321 Y116.84 E495.582
G1 X78.399 Y115.347 E495.69388
G1 X115.348 Y78.399 E499.60426
G1 X113.855 Y78.477 E499.71614
G1 X78.481 Y113.851 E503.45988
G1 X78.585 Y112.874 E503.5334
G1 X78.686 Y112.231 E503.58211
G1 X112.231 Y78.687 E507.13223
G1 X110.549 Y78.955 E507.25969
G1 X78.951 Y110.553 E510.60381
G1 X79.049 Y109.93 E510.651
G1 X79.292 Y108.798 E510.73765
G1 X108.799 Y79.29 E513.86052
G1 X106.865 Y79.81 E514.01039
G1 X79.81 Y106.865 E516.8737
G1 X80.093 Y105.809 E516.95552
G1 X80.262 Y105.257 E516.99872
G1 X80.397 Y104.864 E517.02982
G1 X104.85 Y80.411 E519.61775
G1 X102.556 Y81.291 E519.80162
G1 X81.268 Y102.579 E522.0546
G1 X81.542 Y101.901 E522.10932
G1 X81.932 Y101.051 E522.17931
G1 X82.507 Y99.926 E522.27386
G1 X99.92 Y82.512 E524.11678
G1 X98.275 Y83.349 E524.25491
G1 X97.677 Y83.686 E524.30627
G1 X96.767 Y84.251 E524.38643
G1 X84.308 Y96.71 E525.70501
G1 X85.467 Y94.924 E525.86434
G1 X86.125 Y94.018 E525.94814
G1 X88.014 Y91.687 E526.17266
G1 X88.746 Y90.873 E526.25459
G1 X90.868 Y88.751 E526.47917
G1 X91.687 Y88.014 E526.56162
G1 X94.047 Y86.102 E526.78892
G1 X94.658 Y85.642 E526.84615
G1 X95.558 Y85.018 E526.92811
G1 X95.942 Y84.764 E526.96256
G1 F2700 E521.96256
G0 F300 X95.942 Y84.764 Z0.519
G0 F9000 X95.226 Y83.486
G0 X97.711 Y81.991
G0 X100.57 Y80.54
G0 X104.48 Y78.988
G0 X105.529 Y78.652
G0 X108.602 Y77.832
G0 X112.766 Y77.123
G0 X113.847 Y77.012
G0 X117.031 Y76.85
G0 X118.107 Y76.852
G0 X121.244 Y77.019
G0 X122.31 Y77.132
G0 X126.369 Y77.826
G0 X129.624 Y78.696
G0 X133.468 Y80.116
G0 X134.617 Y80.63
G0 X138.212 Y82.519
G0 X139.005 Y83.034
G0 X141.751 Y84.871
G0 X141.069 Y86.198
;TIME_ELAPSED:243.363766
;LAYER:-4
;TYPE:SUPPORT-INTERFACE
G1 F2700 E526.96256
G1 F3000 X148.801 Y93.929 E527.23531
G0 F9000 X146.984 Y91.688
G1 F3000 X146.252 Y90.874 E527.26262
G1 X144.121 Y88.744 E527.33778
